X: 5994
T: Canción Mixteca
R: waltz
M: 3/4
K: Amajor
L:1/4
P:A
E|AAA|A2 G|FFE|F2A|G3|D3||
E|GGG|G2F|FEE|E2D|F3|C3||
E|ccc|c2B|BAG|A2=G|B3|F3||
F|B3|A2F|Ez E|EG>F|EzB|d2c|B3|A3||
P:B
|:z2E||EGB|e3|z3|z2g|agf|e3|
c3|z2E|EGB|e^d=d-|d3|z2g|ag>f|
gf>e|c3|zzE|ccc|c2B|BAG|A2=G|B3|F3|
z2F|B3|A2F|EzE|EG>F|EzB|d2c|B3|A3|z2E:|
P:C
zCD|E=D/E/F/G/|A2G|A3||

